X: 1
T: Lancer's, The
M: 6/8
L: 1/8
R: jig
K: Dmaj
|:~f2f fed | A3 ABd | ~f2f fed | efe e2f |
~g2g bag | f2a agf | e2g f2e | dcd d2e :|
|:fBB fBB | g=cc gcc | add add | a2b bag |
fBB fBB | g=cc gcc | ~f3 edc | d3 gfg |
|FB,B, FB,B, | G=CC G=CC | ADD ADD | A2B BAG |
FB,B, FB,B, | G=CC G=CC | def edc | dcd d2e ||
